;  Created by Sandify
;  https://sandify.org
;  Version: 0.2.8
;
;  Machine type: Polar
;    Max radius (mm): 200
;    Start point: center
;    End point: center
;  Content type: shape
;  Layer:
;    Shape: Circle
;    Name: polygon
;    Number of lobes: 1
;    Direction: clockwise
;    Visible: true
;    Initial width: 16
;    Initial height: 16
;    X offset: 0
;    Y offset: 0
;    Rotate (degrees): 0
;    Reverse path: true
;    Number of loops: 12
;    When transforming shape: smear
;    Scale: true
;      Scale (+/-): 100
;      Scale by: constant
;    Spin: true
;      Spin (+/-): 0
;      Spin by: constant
;        Switchbacks: 0
;    Track: false
;    Fine tuning:
;      Connect to next layer: line
;      Draw portion of path (%): 100
;      Backtrack at end (%): 0
;      Rotate starting point (%): 0
;  Reverse export path: false
;
; File name: 'out_to_in_circle'
; File type: gcode
;
G1 X200.000 Y200.000
G1 X399.759 Y190.186
G1 X399.759 Y190.186
G1 X399.037 Y180.396
G1 X397.835 Y170.653
G1 X396.157 Y160.981
G1 X394.006 Y151.404
G1 X391.388 Y141.943
G1 X388.309 Y132.622
G1 X384.776 Y123.463
G1 X380.798 Y114.489
G1 X376.384 Y105.720
G1 X371.545 Y97.179
G1 X366.294 Y88.886
G1 X360.641 Y80.860
G1 X354.602 Y73.121
G1 X348.190 Y65.688
G1 X341.421 Y58.578
G1 X334.311 Y51.809